docs/img/svgicons/media/phone.svg

<svg width="268" height="299" viewBox="0 0 268 299" fill="none" xmlns="http://www.w3.org/2000/svg">
<path d="M76.4725 10.4942C76.4725 10.4942 71.9924 0 65.1502 0C58.4165 0 54.9139 3.10888 52.5789 5.25387C50.2438 7.39886 11.1724 39.5058 11.1724 39.5058C11.1724 39.5058 -0.190595 49.4298 0.678262 68.0967C1.41136 86.7635 5.06327 113.332 24.0152 150.339C42.8314 187.266 89.9262 243.687 119.685 263.522C119.685 263.522 147.257 284.673 172.916 293.266C180.369 295.615 195.275 298.67 198.751 298.67C202.28 298.67 208.512 298.67 215.666 293.443C222.943 288.162 263.765 255.335 263.765 255.335C263.765 255.335 273.757 246.307 262.15 235.813C250.488 225.319 215.082 201.982 207.507 195.846C199.918 189.614 189.112 192.357 184.442 196.579C179.785 200.828 171.463 207.82 170.445 208.702C168.924 209.87 164.756 213.657 160.086 211.77C154.14 209.422 129.758 196.185 107.154 165.259C84.6859 134.361 82.2151 124.26 78.8618 113.345C78.2931 111.732 78.2853 109.973 78.8396 108.355C79.3939 106.736 80.4779 105.352 81.9164 104.426C85.2832 102.091 97.678 91.7594 97.678 91.7594C97.678 91.7594 105.701 83.8447 102.348 74.5181C98.9949 65.1914 76.4725 10.4942 76.4725 10.4942Z" fill="#731C00"/>
</svg>

<svg width="268" height="299" fill="none" xmlns="http://www.w3.org/2000/svg"><path d="M76.472 10.494S71.992 0 65.15 0c-6.734 0-10.236 3.109-12.57 5.254-2.335 2.145-41.407 34.252-41.407 34.252S-.19 49.43.678 68.096c.733 18.667 4.385 45.236 23.337 82.243 18.816 36.927 65.911 93.348 95.67 113.183 0 0 27.572 21.151 53.231 29.744 7.453 2.349 22.359 5.404 25.835 5.404 3.529 0 9.761 0 16.915-5.227 7.277-5.281 48.099-38.108 48.099-38.108s9.992-9.028-1.615-19.522c-11.662-10.494-47.068-33.831-54.643-39.967-7.589-6.232-18.395-3.489-23.065.733-4.657 4.249-12.979 11.241-13.997 12.123-1.521 1.168-5.689 4.955-10.359 3.068-5.946-2.348-30.328-15.585-52.932-46.511-22.468-30.898-24.939-40.999-28.292-51.914a7.602 7.602 0 013.054-8.919c3.367-2.335 15.762-12.667 15.762-12.667s8.023-7.914 4.67-17.24c-3.353-9.328-25.876-64.025-25.876-64.025z" fill="#731C00"/></svg>
